X:1
T:Title
%%score 1 2 3
L:1/8
M:2/2
K:C
V:1 treble nm="Part_1"
V:2 bass nm="Part_2"
V:3 bass nm="Part_3"
V:1
 C8 | D4 C4- | C4 F4- | F4 E4 | F8 | z4 F4- | F4 G4- | G4 A4- | A4 G4- | G4 ^F4 | G8 | z4 G4- | %12
 G4 G4 | G8 | F8 | G8 | F8 | E4 D4- | D2 C2 C4- | C4 B,4 | C8- | C8 | z8 | z8 | E8 | F8 | G8 | F8 | %28
 D8- | D8 | C4 E4- | E4 F4- | F4 G4- | G4 F4- | F4 E4- | E4 D4- | D4 C4 | D4 E4- | E4 D4- | %39
 D4 ^C4 | D8 |] %41
V:2
 C8 | B,4 C4 | A,4 F,4 | G,8 | F,8- | F,8 | A,4 B,4 | C8 | D4 B,4 | A,8 | G,8- | G,8 | z8 | E,8 | %14
 D,4 F,4 | E,4 C,4 | D,8 | C,4 F,4 | G,4 E,4 | D,8 | C,8 | z8 | E,8 | F,8 | G,4 A,4- | %25
 A,2 G,2 F,4 | E,8 | D,8 | z4 F,4- | F,4 G,4 | A,8- | A,8 | D4 B,4 | C4 D4 | (3:2:2A,8 B,4 | %35
 C4 B,4 | G,4 A,4 | F,4 G,4 | A,4 D,4 | E,8 | D,8 |] %41
V:3
 C,8 | G,4 A,4 | F,4 D,4 | C,8 | C4 A,4- | A,2 B,2 C4 | F,4 E,4 | C,4 F,4- | F,2 D,2 G,4 | D,8 | %10
 z4 E,4 | C,8 | G,4 B,4- | B,4 C4 | D3 C A,4 | G,4 (3:2:1C6- | (3:2:5C2 B,2 C2 B,4 A,2 | C4 A,4 | %18
 _B,3 A, G,4- | G,4 F,4 | G,4 E,4- | E,4 F,4 | G,8 | A,8 | B,4 C4 | A,8 | B,4 G,4 | A,4 D4- | %28
 D2 C2 A,4 | D,4 B,,4 | A,,8 | z4 D,4- | D,4 E,4- | E,4 D,4- | D,4 A,,4- | A,,4 B,,4- | B,,4 A,,4 | %37
 D,4 C,4 | A,,4 B,,4 | A,,8 | A,8 |] %41

